X: 30318
T: Old Man With Three Thumbs, The
R: reel
M: 4/4
K: Dmajor
dA (3AAA A2 AB|defe dBAB|dB (3BBB B2 Bf|(3aaa ag fgef|
dA (3AAA A2 AB|defe dBAB|dB (3BBB B2 Bg|agfe edBe||
d2 df afdf|(3eee df edBe|d2 df afdf|(3eee fd feef|
d2 df afdf|(3eee df edBe|dA (3AAA A2 Af|(3aaa ag fgef||

